X:36
T: Der Markgraf von Backenweil
N: Q0013B
O: Mitteleuropa, Deutschland / Frankreich, Lothringen, Kreis
N: (kuenstlich) metrisierte Fassung von Q0013.
R: Ballade, Krieg, Gefangenschaft, Ehe, Heimkehr
M: 4/4
L: 1/16
K: F
C4 | F4E4F4G2A2 | B4A4G4
A2G2 | F4C4F2F2G2A2 | B4A4G4
c3B | A4G4F2F2G2B2 | A4G4F4
G2F2 | E4D4C3DC2C2 | F2G2A2F2G4
c3B | A4G4F2F2G2B2 | A4G4F4

